X:1
T:Hodie Christus natus est - Byrd
T:James Gibb editions
T:#
%%score [ 1 2 3 4 ]
L:1/8
Q:1/4=96
M:3/2
K:F
V:1 treble nm="Soprano" snm="S"
V:2 treble nm="Alto" snm="A"
V:3 treble-8 nm="Tenor" snm="T"
V:4 bass nm="Bass" snm="B"
V:1
"^Hodie Christus natus est" D3 E F2 A4 D2 | (A3 B cA d4) ^c2 | d4 z4 z4 | %3
w: Ho- di- e Chris- tus|na\- * * * * tus|est,|
 z4 G3 G F2"^William Byrd\n(1543-1623)" F2 ||[M:2/2] B4 A4 ||[M:3/2] z4 d3 B c3 A || %6
w: ho- di- e Sal-|va- tor|ho- di- e Sal-|
[M:2/2] B2 G2 A G2 ^F ||[M:3/2] G2 D2 (E3 F G2) B2 | A4 D2 B4 G2 | A8 z2 ^F2- | F^F G2 z2 G3 G G2 | %11
w: va- tor ap- pa- ru-|it, ap- pa\- * * ru-|it, ap- pa- ru-|it, ho\-|* di- e, ho- di- e|
 D2 G4 D2 =B2 c2- | c2 G2 z2 (d3 ^cd)c ||[M:2/2] (d3 =c BAG)A ||[M:3/2] B2 z (B2 AB)A G3 G | %15
w: in ter- ra, in ter\-|* ra ca\- * * nunt|an\- * * * * ge-|li, ca\- * * nunt an- ge-|
 ^F4 z2 z A d2 c2 | BA>AA D F2 E F2 G2 ||[M:4/4] c3 B A4 |[M:4/4] ^F3 G F4 | z8 | z D d2 cF B2 | %21
w: li, lae- ten- tur|arch- an- ge- li, arch- an- ge- li, arch-|an- ge- li,|ho- di- e||ex- ul- tent, ex- ul-|
 A2 (GF/E/ D2) C(A | =B c2 B) c2 C2 ||[M:3/2] F6 C2 z2 D2 | (G6 F2) E4 || A6 A2 A4 | %26
w: tent jus\- * * * ti, jus\-|* * * ti, di-|cent- es, di-|cen\- * tes:|Glo- ri- a|
[M:3/2] G3 G c6 A2 ||[M:4/4] B8 | G4 z4 ||[M:3/2] (F3 G AB c3) d c2 | z4 A4 A2 d2- || %31
w: in ex- cel- sis|De-|o,|glo\- * * * * ri- a|in ex- cel\-|
[M:4/4] d2 G2 (Bc d2- | dc c4 =B2) ||[M:3/2] c c2 A B>A (G/F/ G2 C)DG- | GA B3 A (GF) G4 | %35
w: * sis De\- * *||o, in ex- cel- sis De\- * * * o, in|* ex- cel- sis De\- * o,|
 E3 F G2 A2 (c3 B ||[M:4/4] A4 G4 ||[M:3/4][Q:1/4=144] A4 c2 | =B4 c2 | =B4 d2 | ^c4 d2 | z4 z2 | %42
w: in ex- cel- sis De\- *|* o.|Al- le-|lu- ia,|al- le-|lu- ia,||
[M:3/4][Q:1/4=144][Q:1/4=144][Q:1/4=144][Q:1/4=144] AB c2 A2 ||[M:4/4] AG F2 E2 FE | D2 ^C2 || %45
w: al- le- lu- ia,|al- le- lu- ia, al- le-|lu- ia,|
[Q:1/4=94] D2[Q:1/4=91] E2[Q:1/4=87] F4- |[Q:1/4=83] F2[Q:1/4=81] E[Q:1/4=80]D)[Q:1/4=80] E4 |] %47
w: al- le- lu\-|* * * ia.|
V:2
 z4 D3 E F2 A2- | A2 D2 (A2 GF E2) E2 | D4 A6 A2 | A4 z4 z4 ||[M:2/2] d3 B c3 A || %5
w: Ho- di- e Chris\-|* tus na\- * * * tus|est, na- tus|est,|ho- di- e Sal-|
[M:3/2] B2 G2 A B2 G A4 ||[M:2/2] z d2 B c3 A ||[M:3/2] B2 G2 G2 (A3 G G2- | G2 ^F2 G4 D4 | %9
w: va- tor ap- pa- ru- it,|ho- di- e Sal-|va- tor ap- pa\- * *|* ru- it, ap-|
 E3 E ^F4 z2 A2- | AA =B2 z2 c3 c B2 | z2 E2 G4 D2 CG- | GF) E2 (A3 B A)GA>G || %13
w: pa- ru- it, ho\-|* di- e, ho- di- e|in ter- ra, in ter\-|* * ra ca\- * * nunt an- ge-|
[M:2/2] ^F2 (G3 FG)F ||[M:3/2] G3 D D d2 A (B>AB)c | A4 z E F2 D2 z A | %16
w: li, ca\- * * nunt|an- ge- li, ca- nunt an\- * * ge-|li, lae- ten- tur, lae-|
 d2 c2 A2 (c>B AG/F/ E/F/G- ||[M:4/4] G/C/ F3/2E/4D/4E) F4 |[M:4/4] A3 B A4 | z D A2 FD A2 | %20
w: ten- tur arch- an\- * * * * * * *|* * * * * ge- li,|ho- di- e|ex- ul- tent, ex- ul-|
 DF B2 AA d2 | c (A=B c2 Bc)(C | ED/C/) G2 G2 (c2- ||[M:3/2] c2 B3 A A3 GFE | D2 E4 D2 ^C4) || %25
w: tent, ex- ul- tent, ex- ul-|tent jus\- * * * ti, jus\-|* * * ti, di- cen\-||* * * tes:|
 z4 z4 (C3 D |[M:3/2] EF G3) A G2 A2 F2- ||[M:4/4] F2 G4 D2 | (EF G2) G4 ||[M:3/2] A6 A2 A4 | %30
w: Glo\- *|* * * ri- a in ex\-|* cel- sis|De * * o,|glo- ri- a|
 G3 G c6 A2 ||[M:4/4] B8 | G4 z2 G2- ||[M:3/2] G2 A2 d4 G2 (B2- | Bc d3 c c4 =B2) | %35
w: in ex- cel- sis|De-|o, in|* ex- cel- sis De\-||
 c4 E2 F A2 E (G2- ||[M:4/4] GF/E/ F2) E4 ||[M:3/4] F4 E2 | G4 G2 | G4 F2 | A4 ^F2 | z4 z2 | %42
w: o, in ex- cel- sis De\-|* * * * o.|Al- le-|lu- ia,|al- le-|lu- ia,||
[M:3/4] =FG A2 F2 ||[M:4/4] z2 AB (c2 A2 | D2) E2 || FG (A3 A, D2- | D2 ^C=B,) C4 |] %47
w: al- le- lu- ia,|al- le- lu\- *|* ia,|al- le- lu\- * *|* * * ia.|
V:3
 z12 | z4 z4 A3 A | B2 d4 c2 (f3 e/d/ | cA d4) ^c2 d4 ||[M:2/2][K:treble-8] f3 g e3 f || %5
w: |Ho- di-|e Chris- tus na\- * *|* * * tus est,|ho- di- e Sal-|
[M:3/2] (d2 e2) d4 c2 (d2- ||[M:2/2] d2 B2 A>Bcd) ||[M:3/2] G4 z4 d3 B | c2 A2 B2 G2 (Bc) d2- | %9
w: va\- * tor ap- pa\-|* * * * * ru-|it, ho- di-|e Sal- va- tor ap\- * pa\-|
 d2 ^c2 d4 z2 d2- | dd d2 z2 e3 e d2 | =B2 c3 GB (g2 f e>f | ed) c4 (f3 ef)e || %13
w: * ru- it, ho\-|* di- e, ho- di- e|in ter- ra, in ter\- * * *|* * ra ca\- * * nunt|
[M:2/2] (d>c Bc d>c BA ||[M:3/2] G3 G) D2 d3 d G2 | z A d2 ^c2 z d f2 e2 | d f2 e f2 g c2 cc (e- || %17
w: an\- * * * * * * *|* ge- li, an- ge- li,|lae- ten- tur, lae- ten- tur|arch- an- ge- li, lae- ten- tur arch- an\-|
[M:4/4] edcg) c4 |[M:4/4][K:treble-8] d3 d d2 z A | d2 cA d2 cf- | fB z B f2 B(f- | %21
w: * * * ge- li,|ho- di- e ex-|ul- tent, ex- ul- tent jus\-|* ti, ex- ul- tent jus\-|
 f/e/ d2 c) d (g2 ^f) | g (=f/e/ d2) e4 ||[M:3/2] d4 c4 F2 F2 | B4 A8 || (F3 G AB c3) d e2 | %26
w: * * * * ti, jus\- *|ti, jus\- * * ti,|di- cen- tes, di-|cen- tes:|Glo\- * * * * ri- a|
[M:3/2][K:treble-8] z2 e4 e2 f2 c2 ||[M:4/4] d4 d2 (g2- | gf d2) e2 c2- || %29
w: in ex- cel- sis|De- o, De\-|* * * o, in|
[M:3/2] c2 d2 f2 c2 (F3 f | ed e2) f4 e2 ^f2 ||[M:4/4] g4 d3 (=f- | fe/d/ e2) d2 d2 || %33
w: * ex- cel- sis De\- *|* * * o, in ex-|cel- sis De\-|* * * * o, in|
[M:3/2][K:treble-8] e2 f3 B d2 e2 g2- | g2 d (efe ed/c/ d4) | c4 c2 c f2 c (e>d || %36
w: ex- cel- sis, in ex- cel\-|* sis De\- * * * * * *|o, in ex- cel- sis De\- *|
[M:4/4][K:treble-8] c2 A2) c4 ||[M:3/4] c4 c2 | d4 e2 | d4 d2 | e4 d2 | AB c2 A2 | %42
w: * * o.|Al- le-|lu- ia,|al- le-|lu- ia,|al- le- lu- ia,|
[M:3/4][K:treble-8] z4 z2 ||[M:4/4] FG A2 G2 de | f2 e2 || A2 A2 A4 | A8 |] %47
w: |al- le- lu- ia, al- le-|lu- ia,|al- le- lu-|ia.|
V:4
 z12 | z12 | D,3 E, F,2 A,4 D,2 | (A,2 G,F, E,2) E,2 D,4 ||[M:2/2] B,3 G, A,3 F, || %5
w: ||Ho- di- e Chris- tus|na\- * * * tus est,|ho- di- e Sal-|
[M:3/2] G,2 E,2 ^F,2 G,4 F,2 ||[M:2/2] G,4 z4 ||[M:3/2] z D2 B, C3 A, B,2 G,2 | z2 D,2 G,6 B,2 | %9
w: va- tor ap- pa- ru-|it,|ho- di- e Sal- va- tor|ap- pa- ru-|
 A,4 z2 D,3 D, D,2 | z2 G,3 G, C,2 E,2 G,2- | G,2 C,2 E,2 G,4 C,2 | (C3 B, A,G,F,)G, A,3 A, || %13
w: it, ho- di- e,|ho- di- e in ter\-|* ra, in ter- ra|ca\- * * * * nunt an- ge-|
[M:2/2] D,4 z4 ||[M:3/2] z2 (G,3 ^F,G,)F, G,3 C, | D,2 z D, A,2 D,2 z D, A,2 | %16
w: li,|ca\- * * nunt an- ge-|li, lae- ten- tur, lae- ten-|
 D,2 z A, D2 C2 F,2 (C2- ||[M:4/4] CB,A,G,) F,4 |[M:4/4] D,3 G, D,2 z D, | B,2 A,F, B,2 A,2 | %20
w: tur, lae- ten- tur arch- an\-|* * * ge- li,|ho- di- e ex-|ul- tent, ex- ul- tent|
 B,4 F,2 z B,, | F,2 E,C, G,2 A,2 | G,4 C,4 ||[M:3/2] D,4 (F,3 E, D,3 C, | B,,A,, G,,2) A,,8 || %25
w: jus- ti, ex-|ul- tent, ex- ul- tent|jus- ti,|di- cen\- * * *|* * * tes:|
 z4 (F,3 G, A,B, C2- |[M:3/2] CD C2 C,3 C, F,4 ||[M:4/4] B,,4 G,3 G, | C2 B,2 C4 || %29
w: Glo\- * * * *|* ri- a in ex- cel-|sis, in ex-|cel- sis De-|
[M:3/2] F,4 F,3 G, A,B, C2- | CD C2 F,3 G, A,2 D,2 ||[M:4/4] G,4 G,2 B,2- | B,2 C2 G,4 || %33
w: o, glo\- * * * *|* ri- a in ex- cel- sis,|in ex- cel\-|* sis De-|
[M:3/2] C,2 F,F, B,2 B,,2 C,2 G,,2 | G,8 G,,2 G,2 | A,2 C4 F,2 A,2 E,2 ||[M:4/4] F,4 C,4 || %37
w: o, in ex- cel- sis De- o,|De- o, in|ex- cel- sis De\- *|* o.|
[M:3/4] F,4 A,2 | G,4 C,2 | G,4 B,2 | A,4 D,2 | F,G, A,2 F,2 |[M:3/4] z4 z2 || %43
w: Al- le-|lu- ia,|al- le-|lu- ia,|al- le- lu- ia,||
[M:4/4] D,E, F,2 C,2 D,2- | D,2 A,,2 || D,2 ^C,2 D,4) | A,,8 |] %47
w: al- le- lu- ia, al\-|* le-|lu\- * *|ia.|

